packages/tokens/icons/unlink/size16Px.svg

<svg viewBox="0 0 16 16" fill="none" xmlns="http://www.w3.org/2000/svg" width="1em" height="1em"><path d="M4.50018 7.50024L3.29002 8.71036C2.19103 9.80931 2.19101 11.5911 3.28998 12.6901V12.6901C4.3761 13.7762 6.13252 13.7907 7.23646 12.7227L8.50006 11.5002" stroke="currentColor" stroke-linecap="round" stroke-linejoin="round"/><path d="M7.50006 4.5L8.7149 3.32311C9.8188 2.2537 11.5765 2.26764 12.6633 3.35443V3.35443C13.7617 4.45282 13.7625 6.23341 12.6651 7.33281L11.5001 8.5" stroke="currentColor" stroke-linecap="round" stroke-linejoin="round"/><path d="M4.49988 4.5L11.4999 11.5" stroke="currentColor" stroke-linecap="round" stroke-linejoin="round"/><path d="M2.50012 5.5H1.50012M13.5001 10.5H14.5001M9.50012 14.5V13.5M6.5 2.5V1.5" stroke="currentColor" stroke-linecap="round" stroke-linejoin="round"/></svg>

<svg xmlns="http://www.w3.org/2000/svg" fill="none" viewBox="0 0 16 16" width="1em" height="1em"><path stroke="currentColor" stroke-linecap="round" stroke-linejoin="round" d="M4.5 7.5 3.29 8.71a2.814 2.814 0 0 0 0 3.98v0a2.814 2.814 0 0 0 3.946.033L8.5 11.5m-1-7 1.215-1.177a2.814 2.814 0 0 1 3.948.031v0a2.814 2.814 0 0 1 .002 3.979L11.5 8.5m-7-4 7 7m-9-6h-1m12 5h1m-5 4v-1m-3-11v-1"/></svg>
